X:13
T:Heijallerii
M:3/4
L:1/4
Q:1/4=160
R:waltz
K:G
B | "G" A G E | D E>B, | D E>D | "D7" F3 |
D D>F | A3 | "G" B B>A | G2 B | !
"G" A G E | D E>B, | D E>D | "D7" F3 |
D D>F | A2 B | "G" (G3 | G) z G | !
"C" E E E | c c c | "G" B B B | G2 B |
"D7" A A A | E F A | "G" G G E | D2 ^D | !
"C" E E<E | c3 | "G" d d>c | B3 |
"D7" D D>F | A2 B | "G" (G3 | G) z/2 ||
